lib/svgs/config.svg

<?xml version="1.0" encoding="UTF-8" standalone="no"?>
<svg width="20px" height="20px" viewBox="0 0 20 20" version="1.1" xmlns="http://www.w3.org/2000/svg" xmlns:xlink="http://www.w3.org/1999/xlink">
    <defs></defs>
    <g id="Icons" stroke="none" stroke-width="1" fill="none" fill-rule="evenodd">
        <g id="Web" transform="translate(-241.000000, -1954.000000)" fill="#000000">
            <g id="operation/config" transform="translate(241.000000, 1954.000000)">
                <path d="M5.015,17.995095 C4.243,17.995095 3.474,17.701095 2.889,17.117095 C2.315,16.543095 2,15.784095 2,14.979095 C2,14.173095 2.315,13.414095 2.888,12.842095 L8.208,8.17109497 C7.781,6.47009497 8.257,4.69209497 9.497,3.45209497 C11.034,1.91609497 13.374,1.56009497 15.317,2.56909497 C15.487,2.65709497 15.605,2.82109497 15.634,3.01009497 C15.663,3.19909497 15.601,3.39009497 15.465,3.52609497 L12.743,6.24709497 L13.756,7.26109497 L16.478,4.53809497 C16.613,4.40309497 16.804,4.33909497 16.994,4.37009497 C17.183,4.39909497 17.347,4.51609497 17.435,4.68609497 C18.443,6.63109497 18.088,8.97009497 16.551,10.507095 C15.312,11.746095 13.536,12.225095 11.833,11.796095 L7.189,17.087095 C6.583,17.695095 5.797,17.995095 5.015,17.995095 M13.001,3.20109497 C12.026,3.20109497 11.068,3.57809497 10.346,4.30109497 C9.335,5.31209497 8.996,6.79809497 9.46,8.17909497 C9.537,8.40809497 9.469,8.66109497 9.287,8.82109497 L3.709,13.717095 C3.391,14.036095 3.2,14.493095 3.2,14.979095 C3.2,15.463095 3.391,15.921095 3.737,16.268095 C4.448,16.977095 5.604,16.976095 6.314,16.268095 L11.183,10.717095 C11.343,10.535095 11.597,10.467095 11.825,10.544095 C13.207,11.008095 14.692,10.669095 15.703,9.65809497 C16.665,8.69609497 17.015,7.31909497 16.678,6.03609497 L14.181,8.53409497 C13.956,8.75809497 13.558,8.75809497 13.332,8.53409497 L11.47,6.67209497 C11.358,6.55909497 11.294,6.40709497 11.294,6.24709497 C11.294,6.08809497 11.358,5.93509497 11.47,5.82309497 L13.968,3.32609497 C13.649,3.24309497 13.324,3.20109497 13.001,3.20109497 M5.694,15.428095 C5.386,15.736095 4.885,15.736095 4.577,15.428095 C4.269,15.120095 4.269,14.619095 4.577,14.311095 C4.885,14.003095 5.386,14.003095 5.694,14.311095 C6.002,14.619095 6.002,15.120095 5.694,15.428095" id="Shape"></path>
            </g>
        </g>
    </g>
</svg>

<svg xmlns="http://www.w3.org/2000/svg" viewBox="0 0 20 20">
    <path fill="#000" fill-rule="evenodd" d="M5.015 17.995A3 3 0 0 1 2 14.98a3 3 0 0 1 .888-2.137l5.32-4.67a4.936 4.936 0 0 1 1.289-4.72 4.965 4.965 0 0 1 5.82-.883.6.6 0 0 1 .148.957l-2.722 2.721 1.013 1.014 2.722-2.723a.598.598 0 0 1 .957.148 4.966 4.966 0 0 1-.884 5.821 4.93 4.93 0 0 1-4.718 1.29l-4.644 5.29a3.059 3.059 0 0 1-2.174.908m7.986-14.794A3.743 3.743 0 0 0 9.46 8.18a.6.6 0 0 1-.173.642l-5.578 4.896a1.817 1.817 0 0 0 .028 2.551 1.828 1.828 0 0 0 2.577 0l4.869-5.55a.6.6 0 0 1 .642-.174 3.754 3.754 0 0 0 4.853-4.508l-2.497 2.498a.62.62 0 0 1-.849 0L11.47 6.672a.603.603 0 0 1 0-.849l2.498-2.497a3.841 3.841 0 0 0-.967-.125M5.694 15.428a.79.79 0 1 1-1.117-1.12.79.79 0 0 1 1.117 1.12"/>
</svg>
